;FLAVOR:Marlin
;TIME:50
;Filament used: 0.0886225m
;Layer height: 0.3
;MINX:90.311
;MINY:105.5
;MINZ:0.35
;MAXX:129.056
;MAXY:115.653
;MAXZ:0.95
;Generated with Cura_SteamEngine 4.12.1
M140 S80
M105
M190 S80
M104 S240
M105
M109 S240
M82 ;absolute extrusion mode
G28 ;Home
G1 Z15.0 F2000 ;Move the platform
G92 E0
G92 E0
G1 F1500 E-6.5
;LAYER_COUNT:3
;LAYER:0
M107
M204 S1000
;MESH:test1.stl
G0 F7500 X104.681 Y114.5 Z0.35
;TYPE:WALL-OUTER
G1 F1500 E0
G1 X104.528 Y114.5 E0.02226
G1 X104.528 Y110.145 E0.65597
G1 X99.036 Y110.145 E1.45513
G1 X99.036 Y114.5 E2.08884
G1 X98.884 Y114.5 E2.11096
G1 X98.884 Y105.5 E3.42058
G1 X99.036 Y105.5 E3.44269
G1 X99.036 Y109.855 E4.0764
G1 X104.528 Y109.855 E4.87556
G1 X104.528 Y105.5 E5.50927
G1 X104.681 Y105.5 E5.53153
G1 X104.681 Y114.5 E6.84115
G0 F7500 X104.528 Y114.5
G0 X104.528 Y114.453
G0 X104.181 Y114.453
G1 F1500 E0.34115
G0 F7500 X105.161 Y113.192
G0 X106.95 Y113.192
G0 X107.98 Y108.171
G0 X108.562 Y107.987
G0 X113.215 Y113.192
G1 F1500 E6.84115
G0 F7500 X113.081 Y113.285
G1 F1500 X113.781 Y113.065 E6.94792
G1 X113.781 Y105.5 E8.04873
G1 X113.862 Y105.5 E8.06052
G1 X113.862 Y114.5 E9.37013
G1 X113.705 Y114.5 E9.39298
G1 X108.211 Y106.671 E10.78472
G1 X107.512 Y106.892 E10.8914
G1 X107.512 Y114.5 E11.99846
G1 X107.43 Y114.5 E12.01039
G1 X107.43 Y105.5 E13.32001
G1 X107.657 Y105.5 E13.35304
G1 X113.081 Y113.285 E14.7337
G0 F7500 X113.271 Y113.225
G0 X113.619 Y111.539
G1 F1500 E8.2337
G0 F7500 X114.346 Y112.345
G0 X116.161 Y112.345
G0 X116.793 Y114.254
G1 F1500 E14.7337
G1 X122.285 Y114.254 E15.53286
G1 X122.285 Y105.5 E16.80668
G1 X122.438 Y105.5 E16.82894
G1 X122.438 Y114.5 E18.13856
G1 X116.641 Y114.5 E18.9821
G1 X116.641 Y105.5 E20.29172
G1 X116.793 Y105.5 E20.31384
G1 X116.793 Y114.254 E21.58766
G0 F7500 X116.993 Y114.254
G0 X117.141 Y114.461
G1 F1500 E15.08766
G0 F7500 X122.838 Y114.456
G1 F1500 E21.58766
G0 F7500 X124.77 Y114.456
G1 F1500 X126.853 Y109.785 E22.33187
G1 X125.033 Y105.5 E23.00931
G1 X125.26 Y105.5 E23.04234
G1 X129.056 Y114.456 E24.45778
G1 X128.818 Y114.456 E24.49241
G1 X127.28 Y110.749 E25.07641
G1 X126.618 Y110.743 E25.17275
G1 X125.01 Y114.456 E25.76153
G1 X124.77 Y114.456 E25.79645
G0 F7500 X124.851 Y114.274
G0 X122.492 Y114.461
G1 F1500 E19.29645
G0 F7500 X116.161 Y114.254
G0 X115.476 Y114.254
G0 X115.015 Y115.653
G0 X97.731 Y115.653
G0 X97.273 Y114.254
G0 X96.588 Y114.254
G0 X95.955 Y114.254
G1 F1500 E25.79645
G1 X95.955 Y105.5 E27.07027
G1 X96.108 Y105.5 E27.09254
G1 X96.108 Y114.5 E28.40215
G1 X90.311 Y114.5 E29.24569
G1 X90.311 Y105.5 E30.55531
G1 X90.463 Y105.5 E30.57743
G1 X90.463 Y114.254 E31.85125
G1 X95.955 Y114.254 E32.65041
G0 F7500 X95.955 Y114.054
G0 X95.608 Y114.461
G1 F1500 E26.15041
;MESH:NONMESH
G0 F300 X95.608 Y114.461 Z0.65
G0 F7500 X96.588 Y114.5
G0 X98.404 Y114.5
G0 X99.508 Y110.617
G0 X104.056 Y110.617
G0 X104.681 Y114.5
;TIME_ELAPSED:19.992192
;LAYER:1
M106 S85
;TYPE:WALL-OUTER
;MESH:test1.stl
G1 F1500 E32.65041
G1 X104.528 Y114.5 E32.66949
G1 X104.528 Y110.145 E33.21267
G1 X99.036 Y110.145 E33.89766
G1 X99.036 Y114.5 E34.44084
G1 X98.884 Y114.5 E34.4598
G1 X98.884 Y105.5 E35.58233
G1 X99.036 Y105.5 E35.60129
G1 X99.036 Y109.855 E36.14447
G1 X104.528 Y109.855 E36.82946
G1 X104.528 Y105.5 E37.37264
G1 X104.681 Y105.5 E37.39172
G1 X104.681 Y114.5 E38.51425
G0 F8250 X104.528 Y114.5
G0 X104.528 Y114.453
G0 X104.181 Y114.453
G1 F1500 E32.01425
G0 F8250 X105.161 Y113.192
G0 X106.95 Y113.192
G0 X107.98 Y108.171
G0 X108.562 Y107.987
G0 X113.215 Y113.192
G1 F1500 E38.51425
G0 F8250 X113.081 Y113.285
G1 F1500 X113.781 Y113.065 E38.60577
G1 X113.781 Y105.5 E39.54932
G1 X113.862 Y105.5 E39.55942
G1 X113.862 Y114.5 E40.68195
G1 X113.705 Y114.5 E40.70154
G1 X108.211 Y106.671 E41.89446
G1 X107.512 Y106.892 E41.98589
G1 X107.512 Y114.5 E42.93481
G1 X107.43 Y114.5 E42.94503
G1 X107.43 Y105.5 E44.06756
G1 X107.657 Y105.5 E44.09587
G1 X113.081 Y113.285 E45.2793
G0 F8250 X113.271 Y113.225
G0 X113.619 Y111.539
G1 F1500 E38.7793
G0 F8250 X114.346 Y112.345
G0 X116.161 Y112.345
G0 X116.793 Y114.254
G1 F1500 E45.2793
G1 X122.285 Y114.254 E45.96429
G1 X122.285 Y105.5 E47.05614
G1 X122.438 Y105.5 E47.07522
G1 X122.438 Y114.5 E48.19775
G1 X116.641 Y114.5 E48.92078
G1 X116.641 Y105.5 E50.04331
G1 X116.793 Y105.5 E50.06227
G1 X116.793 Y114.254 E51.15412
G0 F8250 X116.993 Y114.254
G0 X117.141 Y114.461
G1 F1500 E44.65412
G0 F8250 X122.838 Y114.456
G1 F1500 E51.15412
G0 F8250 X124.77 Y114.456
G1 F1500 X126.853 Y109.785 E51.79201
G1 X125.033 Y105.5 E52.37267
G1 X125.26 Y105.5 E52.40098
G1 X129.056 Y114.456 E53.61422
G1 X128.818 Y114.456 E53.64391
G1 X127.28 Y110.749 E54.14448
G1 X126.618 Y110.743 E54.22705
G1 X125.01 Y114.456 E54.73172
G1 X124.77 Y114.456 E54.76165
G0 F8250 X124.851 Y114.274
G0 X122.492 Y114.461
G1 F1500 E48.26165
G0 F8250 X116.161 Y114.254
G0 X115.476 Y114.254
G0 X115.015 Y115.653
G0 X97.731 Y115.653
G0 X97.273 Y114.254
G0 X96.588 Y114.254
G0 X95.955 Y114.254
G1 F1500 E54.76165
G1 X95.955 Y105.5 E55.8535
G1 X96.108 Y105.5 E55.87258
G1 X96.108 Y114.5 E56.99511
G1 X90.311 Y114.5 E57.71815
G1 X90.311 Y105.5 E58.84068
G1 X90.463 Y105.5 E58.85963
G1 X90.463 Y114.254 E59.95148
G1 X95.955 Y114.254 E60.63647
G0 F8250 X95.955 Y114.054
G0 X95.608 Y114.461
G1 F1500 E54.13647
;MESH:NONMESH
G0 F300 X95.608 Y114.461 Z0.95
G0 F8250 X96.588 Y114.5
G0 X98.404 Y114.5
G0 X99.508 Y110.617
G0 X104.056 Y110.617
G0 X104.681 Y114.5
;TIME_ELAPSED:35.786784
;LAYER:2
M106 S170
;TYPE:WALL-OUTER
;MESH:test1.stl
G1 F1500 E60.63647
G1 X104.528 Y114.5 E60.65556
G1 X104.528 Y110.145 E61.19874
G1 X99.036 Y110.145 E61.88373
G1 X99.036 Y114.5 E62.42691
G1 X98.884 Y114.5 E62.44587
G1 X98.884 Y105.5 E63.5684
G1 X99.036 Y105.5 E63.58736
G1 X99.036 Y109.855 E64.13053
G1 X104.528 Y109.855 E64.81553
G1 X104.528 Y105.5 E65.35871
G1 X104.681 Y105.5 E65.37779
G1 X104.681 Y114.5 E66.50032
G0 F9000 X104.528 Y114.5
G0 X104.528 Y114.453
G0 X104.181 Y114.453
G1 F1500 E60.00032
G0 F9000 X105.161 Y113.192
G0 X106.95 Y113.192
G0 X107.98 Y108.171
G0 X108.562 Y107.987
G0 X113.215 Y113.192
G1 F1500 E66.50032
G0 F9000 X113.081 Y113.285
G1 F1500 X113.781 Y113.065 E66.59184
G1 X113.781 Y105.5 E67.53539
G1 X113.862 Y105.5 E67.54549
G1 X113.862 Y114.5 E68.66802
G1 X113.705 Y114.5 E68.6876
G1 X108.211 Y106.671 E69.88052
G1 X107.512 Y106.892 E69.97196
G1 X107.512 Y114.5 E70.92087
G1 X107.43 Y114.5 E70.9311
G1 X107.43 Y105.5 E72.05363
G1 X107.657 Y105.5 E72.08194
G1 X113.081 Y113.285 E73.26536
G0 F9000 X113.271 Y113.225
G0 X113.619 Y111.539
G1 F1500 E66.76536
G0 F9000 X114.346 Y112.345
G0 X116.161 Y112.345
G0 X116.793 Y114.254
G1 F1500 E73.26536
G1 X122.285 Y114.254 E73.95035
G1 X122.285 Y105.5 E75.0422
G1 X122.438 Y105.5 E75.06128
G1 X122.438 Y114.5 E76.18381
G1 X116.641 Y114.5 E76.90685
G1 X116.641 Y105.5 E78.02938
G1 X116.793 Y105.5 E78.04833
G1 X116.793 Y114.254 E79.14018
G0 F9000 X116.993 Y114.254
G0 X117.141 Y114.461
G1 F1500 E72.64018
G0 F9000 X122.838 Y114.456
G1 F1500 E79.14018
G0 F9000 X124.77 Y114.456
G1 F1500 X126.853 Y109.785 E79.77808
G1 X125.033 Y105.5 E80.35874
G1 X125.26 Y105.5 E80.38705
G1 X129.056 Y114.456 E81.60029
G1 X128.818 Y114.456 E81.62997
G1 X127.28 Y110.749 E82.13054
G1 X126.618 Y110.743 E82.21312
G1 X125.01 Y114.456 E82.71778
G1 X124.77 Y114.456 E82.74772
G0 F9000 X124.851 Y114.274
G0 X122.492 Y114.461
G1 F1500 E76.24772
G0 F9000 X116.161 Y114.254
G0 X115.476 Y114.254
G0 X115.015 Y115.653
G0 X97.731 Y115.653
G0 X97.273 Y114.254
G0 X96.588 Y114.254
G0 X95.955 Y114.254
G1 F1500 E82.74772
G1 X95.955 Y105.5 E83.83957
G1 X96.108 Y105.5 E83.85865
G1 X96.108 Y114.5 E84.98118
G1 X90.311 Y114.5 E85.70421
G1 X90.311 Y105.5 E86.82674
G1 X90.463 Y105.5 E86.8457
G1 X90.463 Y114.254 E87.93755
G1 X95.955 Y114.254 E88.62254
G0 F9000 X95.955 Y114.054
G0 X95.608 Y114.461
;TIME_ELAPSED:50.625299
G1 F1500 E82.12254
M140 S0
M204 S500
M107
M104 S0
M140 S0
G92 E0
G1 E-10 F2000
G28 X0 Y0
M84
M82 ;absolute extrusion mode
M104 S0
;End of Gcode
;SETTING_3 {"global_quality": "[general]\\nversion = 4\\nname = Draft #2\\ndefin
;SETTING_3 ition = anet3d_a8\\n\\n[metadata]\\ntype = quality_changes\\nquality_
;SETTING_3 type = draft\\nsetting_version = 19\\n\\n[values]\\nadhesion_type = n
;SETTING_3 one\\nlayer_height = 0.3\\nlayer_height_0 = 0.35\\nmaterial_bed_tempe
;SETTING_3 rature = 80\\n\\n", "extruder_quality": ["[general]\\nversion = 4\\nn
;SETTING_3 ame = Draft #2\\ndefinition = anet3d_a8\\n\\n[metadata]\\ntype = qual
;SETTING_3 ity_changes\\nquality_type = draft\\nsetting_version = 19\\nposition 
;SETTING_3 = 0\\n\\n[values]\\nbottom_layers = 4\\ninfill_angles = [0, 20, 40, 6
;SETTING_3 0, 80, 100, 120, 140, 160 ]\\ninfill_line_distance = 4\\ninfill_patte
;SETTING_3 rn = lines\\ninfill_randomize_start_location = True\\nironing_only_hi
;SETTING_3 ghest_layer = True\\nironing_pattern = concentric\\nline_width = 1\\n
;SETTING_3 material_print_temperature = 240\\nretract_at_layer_change = True\\ns
;SETTING_3 kirt_line_count = 5\\nsupport_z_distance = 0.3\\ntop_layers = 4\\nwal
;SETTING_3 l_line_count = 3\\n\\n"]}
